X:942
T:Yankee Doodle
S:Bruce & Emmett's Drummers and Fifers Guide (1862), p. 94
M:2/4
L:1/16
Q:1/4=100
K:D
%%MIDI program 72
%%MIDI transpose 8
%%MIDI ratio 3 1
(3ABc|d>de>f d>fe>c|d>de>f d2c>A|d>de>f g>fe>d|c>AB>c d2::
d>c|B>cB>A B>cd>B|A>BA>G F>GA2|B>cB>A B>cd>B|A>dc>e d2:|
